X: 79
T: El Ginat Egoz
C: Sara Levi Tanai 1944
D: Hora Oranim Zabar Troupe (Electra Records)
F: http://www.youtube.com/watch?v=87NI3aIcSAg
M: 2/4
L: 1/8
Q: 1/4=54
K: Am
c>d ee/d/ |d3 c/B/     | AA/G/ A2- |A2 z d/c/| d2 eg| ae e/d/c/d/|d3 e|
M:3/4
A2 AA/G/EG| AB/A/ A2 zc|d e/c/ d3 d| BB/A/ A4| 



